X:1
T:Buxtehude - Chaconne in C Minor. {Professional production full score.}
T:Praeludium in F Major BuxWV 144
%%score { ( 1 4 5 ) | ( 2 6 ) | 3 }
L:1/8
Q:1/4=100
M:4/4
K:F
V:1 treble nm="Pipe Organ" snm="Org."
V:4 treble 
V:5 treble 
V:2 bass 
V:6 bass 
V:3 bass-8 
V:1
 z4 C/F/E/F/ D/G/F/G/ | E/A/G/A/ F/B/A/B/ G/c/B/c/ z d | z c z B z A z G | %3
[Q:1/4=80] z F[Q:1/4=60] z F"^(""^)" PF>E[Q:1/4=50] F2 |[Q:1/4=70] z8[Q:1/4=80] | %5
 z2 z/ A/d/c/ B2- B/B/c/B/ | A2 z2 z/ G/c/_B/ A2 | z/ A/G/F/ G2- G/c/B/A/ B2 | %8
 A2- A/G/F/E/ DE/F/ G/A/G/F/ | EFGF E/E/A/G/ F2- | FB c>B MA2 MG2 | ABcB A2 z/ A/G/F/ | %12
 G/B/A/G/ A2 z/ B/A/G/ A2 | z/ B/A/G/ A2 z/ A/G/F/ G/E/F/D/ | EAGc GF[Q:1/4=70]GA | %15
[Q:1/4=60] z/ G/A/E/ F2- F/F/B-[Q:1/4=50] B2 | [CFA]8 || z[Q:1/4=100] F A/G/A/F/ cC z C | %18
 E/D/E/C/ F/E/F/D/ G/F/G/E/ F/G/A/=B/ | Pc3 _B A>G F/E/D/E/ | D>F D>G ME>A FB | A2 c2 G>F E2- | %22
 EMG F2 D>G MA2 | G2 c2 A2 z2 | z8 | z8 | z8 | z8 | z4 z c e/d/e/c/ | fF z F A/G/A/F/ B/A/B/G/ | %30
 c/B/c/A/ B/c/d/e/ f2 e/f/e/d/ | c/f/=B c>B c4- | c>d c/B/A- A2 F>B | G>c Td2 c4 | z8 | z8 | z8 | %37
 z c e/d/e/c/ gG z G | =B/A/B/G/ c/B/c/A/ d/c/d/B/ c/d/e/f/ | %39
 g/d/g/f/ e/d/e/c/ d/c/d/=B/ c/B/A/d/ | =B2 Pd2 e>d c/B/A/B/ | GcAd P=B>c d2 | e2 d2 e2 Md2 | %43
 c4 z4 | z8 | z8 | z4 !breath!z F A/G/A/F/ | c3 B MA4 | TG4 F2 z2 | z8 | z c e/d/e/c/ fF z F | %51
 A/G/A/F/ B/A/B/G/ c/B/c/A/ B/c/d/e/ |[Q:1/4=90] fd/c/ TB2[Q:1/4=80] c4[Q:1/4=70] | %53
 G3[Q:1/4=30] c A4 |] %54
V:2
!fff! F,/B,/A,/B,/ G,/C/B,/C/ A,2 B,=B, | x8 | x2 D>B, C>A, B,>G, | A,>F, B,>A, G,2 A,2 | z8 | z8 | %6
 z/ A,/D/C/ B,=B, C4 | z8 | z8 | G,F,E,F, G,2 z2 | z4 z/ A,/D/C/ B,2 | A,G,F,B, C2 z2 | z8 | %13
 z4 z G,PE,>F, | G,F,E,A, E,F,E,F, | z2 z z/ A,/ MB,>[F,B,] PG,>G, | [F,A,]8 || z8 | z8 | x6 z F, | %20
 A,/G,/A,/F,/ B,/A,/B,/G,/ C/B,/C/A,/ B,/[I:staff -1]C/D/E/ | %21
[I:staff +1] z F, A,/G,/A,/F,/ CC, z C, | G,>C A,>D B,>[I:staff -1]E[I:staff +1] F,/G,/A,/=B,/ | %23
 C4- C>_B, A,/G,/F,/G,/ | E,>F, D,>G, E,>A, F,B, | A,4 G,>F, E,2 | G,2 F,>A, MG,>B, A,2 | %27
 G,/G/F/E/ F2 E2 C2- | C3 M=B, C4 | A,>B, A,/G,/F,- F,2 G,2 | A,2 G,2 F,/G,/A,/=B,/ CC, | %31
 z4 z C E/D/E/C/ | FF, z F, A,/G,/A,/F,/ B,/A,/B,/G,/ | C/B,/C/A,/ B,/C/D/E/ F4 | %34
 E>F E/D/C- C2- C>F | D>G F2 E3[K:treble] A/G/ | F3 E[K:bass] C3 P=B, | C2 G,2- G,4- | %38
 G,2 A,2- A,D E2 | G,4 =B,2 MA,2 | G,4 E,>F, F,2 | CA, D2 E2 D2 | C/D/E/F/ G2 C2 P=B,2 | %43
 C4 =B,>C B,/A,/G,- | G,2 G,>C A,>D C2 | =B,3 D C>_B, A,2- | A,2 PG,2 A,2 z2 | %47
 z4 z F, A,/G,/A,/F,/ | C3 B, A,2 F/E/F/D/ | E>FED C4- | C4- C>D C2- | C>D- DB, A,>C B,G, | %52
 A,2 G,2 z C/B,/ PA,C | C4 C4 |] %54
V:3
 z8 | z8 | z8 | z8 | C,/F,/E,/F,/ D,/G,/F,/G,/ E,/A,/G,/A,/ F,/B,/G,/C/ | %5
 C,2 D,2- D,/D,/G,/F,/ E,2 | F,2 G,2 C,2 F,F,, | C,2 CC, E,3 E,, | F,,4 G,,4 | C,D,E,D, C,2 z2 | %10
 z2 z/ A,,/A,/G,/ F,3 E, | F,G,A,G, F,/E,/F,/=B,,/ C,2- | C,2 F,/C,/D,/G,,/ A,,2 z/ G,,/A,,/E,,/ | %13
 F,,2 z/ E,/F,/=B,,/ C,4- | C,8 | C,,8 | F,,8 || z8 | z8 | z8 | z8 | z8 | z8 | %23
 z C, E,/D,/E,/C,/ F,F,, z F,, | A,,/G,,/A,,/F,,/ B,,/A,,/B,,/G,,/ C,/B,,/C,/A,,/ B,,/C,/D,/E,/ | %25
 F,4 E,>D, C,2- | C,>E, D,>F, E,>G, F,2 | E,2 D,2 C,2 F,,2 | E,,2 D,,2 C,,4 | z8 | z8 | z8 | z8 | %33
 z4 z F, A,/G,/A,/F,/ | CC, z C, E,/D,/E,/C,/ F,/E,/F,/D,/ | %35
 G,/F,/G,/E,/ F,/G,/A,/=B,/ C2 A,F,/E,/ | D,2 E,/D,/E,/C,/ F,E,/F,/ G,G,, | %37
 C,4 =B,,>C, B,,/A,,/G,,- | G,,>C, A,,>D, MD,>G, C,2 | =B,,2 C,2 G,,3 ^F,, | G,,4 z4 | z8 | z8 | %43
 z C, E,/D,/E,/C,/ G,G,, z G,, | =B,,/A,,/B,,/G,,/ C,/B,,/C,/A,,/ D,/C,/D,/B,,/ C,/D,/E,/F,/ | %45
 G,3 =B,, C,D,/E,/ F,2 | z A,,/B,,/ C,C,, F,,2 z2 | z8 | z C, E,/D,/E,/C,/ F,F,, z2 | %49
 z4 z C, E,/D,/E,/C,/ | CC, z C, A,,>B,, A,,/G,,/F,,- | F,,>B,, G,,2 A,,>F,, G,,2 | %52
 F,,2 G,,2 A,,2 z A,,/B,,/ | C,4 F,,4 |] %54
V:4
 x8 | C/F/E/F/ D/G/F/G/ E2 F>D | E>[I:staff +1]C[I:staff -1] z/ F3/2 z/ E3/2 z/ D3/2 | %3
 z/ C3/2 z/ D3/2 B,2 C2 | z8 | z/ E/A/G/ F3 D MG2 | F2 z/ D/G/F/ PE2 F2 | %7
 z/ F/E/D/ E2- E/A/G/F/ G2- | G/G/F/E/ F/E/D/C/- C2 =B,2 | %9
 z/ C/ z/ C/ z/ C/ z/ =B,/ C2 z/ A,/D/C/ | _B,/D/G/F/ E2 F2 G2 | z/ FFFE/ F2 z/ F/E/D/ | %12
 E/G/F/E/ F2 z/ G/F/E/ F2 | z/ G/F/E/ F2 z/ F/E/D/ E/C/D/=B,/ | z/ CCCC/- C/CCCC/ | %15
 z2 z/ C/D- D>D P[CE]>[CE] | x8 || z8 | z8 | z C E/D/E/C/ F[I:staff +1]F, x2 | x8 | %21
[I:staff -1] F4 E>D C/[I:staff +1]B,/A,/B,/ | x6[I:staff -1] CF | E2 G2 F>D C/B,/A,/=B,/ | %24
 C2 D2 ME2 D2 | CF A/G/A/F/ cC z C | E/D/E/C/ F/E/F/D/ G/F/G/E/ F/G/A/=B/ | c2 z =B cG A/G/A/F/ | %28
 G/F/G/E/ F/E/D/G/ E4 | C>D C/[I:staff +1]B,/A,[I:staff -1] C>D- D>E- | E>F G2 A2 G2 | %31
 A/D/G/F/ E/F/PD E2 G/F/G/E/ | A>_B A/G/F C>F D>G | E>A FB A4 | G>A G/F/E PG>E A2 | %35
 B2 MA2 GA/=B/ c2 | dA/_B/ G2 A>F PD2 | E4 D>E D/C/=B, | D>E- E>F- F2 E2 | PD2 E2 z4 | %40
 z G =B/A/B/G/ cC z C | E/D/E/C/ F/E/F/D/ G/F/G/E/ F/G/A/=B/ | c2 z =B/A/ z/ A/G/A/ z/ G/F/G/ | %43
 E4 D>E D/C/=B, | D>=B, E2 F2 ME2 | DE/F/ G2 ED CD/E/ | F3 PE F2 z2 | z C E/D/E/C/ F4 | %48
 E4 C>F A/G/A/F/ | G>AGF E4- | E2 G2 F>G A2 | F2 GD F2 DB, | C2 z G/F/ PE2 F2- | F2 PE2 F4 |] %54
V:5
 x8 | x6 z/ A3/2 | z/ G3/2 x6 | x8 | x8 | x8 | x8 | x8 | x8 | x8 | x8 | x8 | x8 | x8 | x8 | x8 | %16
 x8 || x8 | x8 | x8 | x8 | x8 | x8 | x8 | x8 | x8 | x8 | x8 | x8 | x8 | x8 | x8 | x8 | x8 | x8 | %35
 x8 | x8 | x8 | x8 | x8 | x8 | x8 | x8 | x8 | x8 | x8 | x8 | x8 | x8 | x8 | x8 | x8 | x8 | x8 |] %54
V:6
 x8 | x8 | x8 | x6 F,2 | x8 | x8 | x8 | x8 | x8 | x8 | x8 | x8 | x8 | x8 | x8 | x8 | x8 || x8 | %18
 x8 | z8 | z8 | x8 | E,/D,/E,/C,/ F,/E,/F,/D,/ G,/F,/G,/E,/ x2 | x8 | x8 | x8 | x8 | x8 | x8 | x8 | %30
 x8 | x8 | x8 | x8 | x8 | x7[K:treble] x | x4[K:bass] x4 | x8 | x8 | x8 | x8 | x8 | x8 | x8 | x8 | %45
 x8 | x8 | x8 | x8 | x8 | x8 | x8 | x8 | x8 |] %54

